images/feature-icon-1.svg

<svg width="45" height="44" viewBox="0 0 45 44" fill="none" xmlns="http://www.w3.org/2000/svg">
<path d="M35.7513 34.3531H37.1814V35.7598H35.7513V34.3531Z" fill="white"/>
<path d="M32.8916 34.3531H34.3217V35.7598H32.8916V34.3531Z" fill="white"/>
<path d="M30.0319 34.3531H31.462V35.7598H30.0319V34.3531Z" fill="white"/>
<path d="M30.0319 37.1666H31.462V38.5733H30.0319V37.1666Z" fill="white"/>
<path d="M32.8916 37.1666H34.3217V38.5733H32.8916V37.1666Z" fill="white"/>
<path d="M35.7513 37.1666H37.1814V38.5733H35.7513V37.1666Z" fill="white"/>
<path d="M41.4724 21.0999V13.0721L35.037 6.74214L28.6015 13.0721V19.1433L25.7413 16.6429L21.9315 19.9739C21.5618 19.6771 21.1613 19.426 20.7359 19.2178V8.43998C20.7359 3.78603 16.8868 0 12.1552 0C7.42373 0 3.5746 3.78603 3.5746 8.43998V19.2038C1.41514 20.2503 -0.000671387 22.4117 -0.000671387 24.8726V32.3532C-0.000671387 33.9048 1.28214 35.1666 2.85954 35.1666H4.28965V39.3866H14.3004H15.7305H18.5907V43.6066H44.3327V21.0999H41.4724ZM42.9026 23.9133H35.752V22.5066H42.9026V23.9133ZM35.752 42.1999H31.4617V39.3866H35.752V42.1999ZM30.0316 37.9799V42.1999H28.6015V30.9466H38.6122V42.1999H37.1821V37.9799H30.0316ZM37.1821 29.5399H30.0316V28.1333H37.1821V29.5399ZM35.752 21.0999V14.0666H40.0423V21.0999H35.752ZM39.0312 12.66H31.0427L35.037 8.73116L39.0312 12.66ZM30.0316 14.0666H34.3219V21.0999V21.8033V26.7266H32.8918V22.8941L30.0316 20.3938V14.0666ZM30.2962 22.5066H21.1864L25.7413 18.5243L30.2962 22.5066ZM12.1552 1.40666C16.098 1.40666 19.3058 4.56181 19.3058 8.43998V18.7009L15.5689 17.8527C15.2428 17.7788 15.0155 17.4975 15.0155 17.1676V16.5733C16.8067 14.9338 17.8757 12.6143 17.8757 10.116V8.43998H17.1606C15.5074 8.43998 13.9529 7.80698 12.7838 6.65774L12.1552 6.0374L11.5274 6.65703C10.3576 7.80698 8.80307 8.43998 7.14987 8.43998H6.43481V10.1167C6.43481 12.615 7.50382 14.9345 9.29503 16.574V17.1683C9.29503 17.4982 9.06764 17.7795 8.74086 17.8534L5.0047 18.7009V8.43998C5.0047 4.56181 8.21244 1.40666 12.1552 1.40666ZM14.3004 26.7266V29.5399H5.71976V26.7266H14.3004ZM11.9407 25.3199L10.8975 22.5066H13.4145L12.3698 25.3199H11.9407ZM13.935 21.0999H10.3748L9.60178 19.016C10.1495 18.7248 10.5407 18.217 10.6715 17.6135C11.0519 17.8456 11.4531 18.0524 11.8728 18.2297L12.1552 18.3485L12.437 18.2297C12.8574 18.0524 13.2579 17.8456 13.6383 17.6135C13.7691 18.217 14.1603 18.7248 14.708 19.016L13.935 21.0999ZM12.1552 16.811C9.53886 15.5823 7.86492 12.9863 7.86492 10.116V9.81359C9.45734 9.6687 10.9468 9.04062 12.1552 8.00321C13.3637 9.04133 14.8531 9.6687 16.4456 9.81359V10.116C16.4456 12.987 14.7716 15.5823 12.1552 16.811ZM1.42944 32.3532V24.8726C1.42944 22.5664 3.02472 20.5935 5.30932 20.0759L8.22674 19.4134L10.4184 25.3199H4.28965V30.9466H14.3004C15.0891 30.9466 15.7305 31.5775 15.7305 32.3532C15.7305 33.129 15.0891 33.7599 14.3004 33.7599H2.85954C2.07084 33.7599 1.42944 33.129 1.42944 32.3532ZM5.71976 37.9799V35.1666H14.3004V37.9799H5.71976ZM15.7305 37.9799V34.7755C16.5814 34.2874 17.1606 33.39 17.1606 32.3532C17.1606 31.3137 16.585 30.4043 15.7305 29.9176V25.3199H13.8921L16.083 19.4134L19.0012 20.0759C19.674 20.2285 20.3011 20.5176 20.851 20.9178L18.5907 22.8941V37.9799H15.7305ZM20.0208 23.9133H31.4617V26.7266H28.6015V29.5399H27.1714V42.1999H20.0208V23.9133ZM40.0423 42.1999V29.5399H38.6122V26.7266H35.752V25.3199H42.9026V42.1999H40.0423Z" fill="white"/>
<path d="M37.1823 17.4733H38.6124V18.8799H37.1823V17.4733Z" fill="white"/>
<path d="M37.1823 20.2866H38.6124V21.6933H37.1823V20.2866Z" fill="white"/>
<path d="M31.4606 20.2866H32.8907V21.6933H31.4606V20.2866Z" fill="white"/>
<path d="M31.4606 17.4733H32.8907V18.8799H31.4606V17.4733Z" fill="white"/>
<path d="M24.3102 27.3199H25.7403V28.7266H24.3102V27.3199Z" fill="white"/>
<path d="M21.4505 27.3199H22.8806V28.7266H21.4505V27.3199Z" fill="white"/>
<path d="M21.4505 30.1332H22.8806V31.5398H21.4505V30.1332Z" fill="white"/>
<path d="M24.3102 30.1332H25.7403V31.5398H24.3102V30.1332Z" fill="white"/>
<path d="M21.4505 32.9467H22.8806V34.3533H21.4505V32.9467Z" fill="white"/>
<path d="M24.3102 32.9467H25.7403V34.3533H24.3102V32.9467Z" fill="white"/>
<path d="M21.4505 35.7599H22.8806V37.1666H21.4505V35.7599Z" fill="white"/>
<path d="M24.3102 35.7599H25.7403V37.1666H24.3102V35.7599Z" fill="white"/>
<path d="M21.4505 38.5732H22.8806V39.9799H21.4505V38.5732Z" fill="white"/>
<path d="M24.3102 38.5732H25.7403V39.9799H24.3102V38.5732Z" fill="white"/>
<path d="M21.4505 41.3866H22.8806V42.7933H21.4505V41.3866Z" fill="white"/>
<path d="M24.3102 41.3866H25.7403V42.7933H24.3102V41.3866Z" fill="white"/>
</svg>

<svg xmlns="http://www.w3.org/2000/svg" width="45" height="44" fill="none"><path fill="#fff" d="M35.751 34.353h1.43v1.407h-1.43zM32.892 34.353h1.43v1.407h-1.43zM30.032 34.353h1.43v1.407h-1.43zM30.032 37.167h1.43v1.406h-1.43zM32.892 37.167h1.43v1.406h-1.43zM35.751 37.167h1.43v1.406h-1.43z"/><path fill="#fff" d="M41.472 21.1v-8.028l-6.435-6.33-6.435 6.33v6.071l-2.86-2.5-3.81 3.33a6.4 6.4 0 0 0-1.196-.755V8.44c0-4.654-3.85-8.44-8.58-8.44-4.732 0-8.581 3.786-8.581 8.44v10.764c-2.16 1.046-3.576 3.208-3.576 5.669v7.48c0 1.552 1.283 2.814 2.86 2.814h1.43v4.22H18.59v4.22h25.743V21.1zm1.43 2.813h-7.15v-1.406h7.15zM35.753 42.2h-4.29v-2.813h4.29zm-5.72-4.22v4.22h-1.43V30.947h10.01V42.2h-1.43v-4.22zm7.15-8.44h-7.15v-1.407h7.15zm-1.43-8.44v-7.033h4.29V21.1zm3.28-8.44h-7.99l3.995-3.929zm-9 1.407h4.29v12.66h-1.43v-3.833l-2.86-2.5zm.264 8.44h-9.11l4.555-3.983zm-18.14-21.1c3.942 0 7.15 3.155 7.15 7.033V18.7l-3.737-.847a.7.7 0 0 1-.554-.685v-.595a8.74 8.74 0 0 0 2.86-6.457V8.44h-.714a6.2 6.2 0 0 1-4.377-1.782l-.629-.62-.628.619A6.2 6.2 0 0 1 7.15 8.44h-.715v1.677a8.74 8.74 0 0 0 2.86 6.457v.594c0 .33-.227.611-.554.685l-3.736.848V8.44c0-3.878 3.207-7.033 7.15-7.033m2.144 25.32v2.813H5.72v-2.813zm-2.36-1.407-1.042-2.813h2.517L12.37 25.32zm1.995-4.22h-3.56l-.773-2.084a2.09 2.09 0 0 0 1.07-1.402q.57.348 1.2.616l.283.119.282-.12q.63-.266 1.201-.616c.131.604.522 1.112 1.07 1.403zm-1.78-4.289c-2.616-1.229-4.29-3.825-4.29-6.695v-.302a7.62 7.62 0 0 0 4.29-1.81 7.6 7.6 0 0 0 4.29 1.81v.302c0 2.871-1.673 5.466-4.29 6.695M1.43 32.353v-7.48c0-2.307 1.596-4.28 3.88-4.797l2.918-.663 2.191 5.907H4.29v5.627H14.3c.79 0 1.43.63 1.43 1.406a1.42 1.42 0 0 1-1.43 1.407H2.86a1.42 1.42 0 0 1-1.43-1.407m4.29 5.627v-2.813H14.3v2.813zm10.011 0v-3.204c.851-.489 1.43-1.386 1.43-2.423 0-1.04-.575-1.949-1.43-2.435V25.32h-1.838l2.191-5.907 2.918.663c.673.152 1.3.442 1.85.842l-2.26 1.976V37.98zm4.29-14.067h11.442v2.814h-2.86v2.813h-1.43V42.2H20.02zM40.043 42.2V29.54h-1.43v-2.813h-2.86V25.32h7.15V42.2z"/><path fill="#fff" d="M37.182 17.473h1.43v1.407h-1.43zM37.182 20.287h1.43v1.406h-1.43zM31.46 20.287h1.43v1.406h-1.43zM31.46 17.473h1.43v1.407h-1.43zM24.31 27.32h1.43v1.407h-1.43zM21.45 27.32h1.43v1.407h-1.43zM21.45 30.133h1.43v1.407h-1.43zM24.31 30.133h1.43v1.407h-1.43zM21.45 32.947h1.43v1.406h-1.43zM24.31 32.947h1.43v1.406h-1.43zM21.45 35.76h1.43v1.407h-1.43zM24.31 35.76h1.43v1.407h-1.43zM21.45 38.573h1.43v1.407h-1.43zM24.31 38.573h1.43v1.407h-1.43zM21.45 41.387h1.43v1.406h-1.43zM24.31 41.387h1.43v1.406h-1.43z"/></svg>
